svg/fluentui-system-icons/ic_fluent_call_missed_12_regular.svg

<svg width="12" height="12" viewBox="0 0 12 12" fill="none" xmlns="http://www.w3.org/2000/svg">
<path d="M8.90118 1.56104C8.23785 1.28638 7.24167 0.996359 5.99721 1.00003C4.76167 1.00368 3.77149 1.28976 3.10962 1.56058C2.18406 1.9393 1.85549 2.86861 2.05883 3.66432L2.09794 3.81738C2.30975 4.64629 3.16968 5.11143 3.99168 4.97646L4.37951 4.91278C4.90375 4.8267 5.36008 4.45081 5.4792 3.91297L5.57957 3.45974C5.7203 3.44239 5.86756 3.43019 5.99962 3.43019C6.1317 3.43019 6.279 3.4424 6.41975 3.45975L6.52013 3.91297C6.63924 4.45081 7.09557 4.8267 7.6198 4.91278L8.00755 4.97645C8.82956 5.11143 9.68949 4.64629 9.90131 3.81738L9.94191 3.65847C10.1438 2.86835 9.82185 1.94225 8.90118 1.56104ZM6.00016 2.00003C7.08649 1.99682 7.95109 2.24998 8.51862 2.48497C8.91898 2.65074 9.06878 3.03625 8.97305 3.41089L8.93244 3.5698C8.86764 3.82339 8.55791 4.05343 8.16958 3.98967L7.78183 3.926C7.609 3.89762 7.5163 3.78631 7.49647 3.69675L7.32212 2.90947C7.27859 2.71295 7.12148 2.56169 6.92346 2.52566C6.87473 2.51679 6.81848 2.5071 6.75673 2.4974C6.54563 2.46425 6.26512 2.43019 5.99962 2.43019C5.73412 2.43019 5.45363 2.46425 5.24255 2.4974C5.18082 2.5071 5.12458 2.51679 5.07586 2.52566C4.87783 2.56169 4.72073 2.71295 4.67721 2.90947L4.50285 3.69675C4.48302 3.78631 4.39032 3.89762 4.21749 3.92599L3.82966 3.98967C3.44133 4.05343 3.13161 3.82339 3.06681 3.5698L3.02769 3.41674C2.93146 3.04013 3.08362 2.65169 3.48832 2.4861C4.05634 2.25368 4.91839 2.00322 6.00016 2.00003ZM5.5 7C5.77614 7 6 7.22386 6 7.5V8H6.5C6.77614 8 7 8.22386 7 8.5C7 8.77614 6.77614 9 6.5 9H5.5C5.22386 9 5 8.77614 5 8.5V7.5C5 7.22386 5.22386 7 5.5 7ZM3 8C3 6.34315 4.34315 5 6 5C7.65685 5 9 6.34315 9 8C9 9.65685 7.65685 11 6 11C4.34315 11 3 9.65685 3 8ZM6 6C4.89543 6 4 6.89543 4 8C4 9.10457 4.89543 10 6 10C7.10457 10 8 9.10457 8 8C8 6.89543 7.10457 6 6 6Z" fill="#212121"/>
</svg>

<svg xmlns="http://www.w3.org/2000/svg" width="12" height="12"><path d="M8.901 1.561A7.547 7.547 0 0 0 5.997 1a7.701 7.701 0 0 0-2.887.56c-.926.38-1.255 1.309-1.051 2.104l.039.153c.212.83 1.072 1.294 1.894 1.16l.388-.064c.524-.086.98-.462 1.1-1l.1-.453c.14-.018.288-.03.42-.03s.279.012.42.03l.1.453c.12.538.576.914 1.1 1l.388.063c.822.135 1.681-.33 1.893-1.159l.04-.159c.203-.79-.12-1.716-1.04-2.097ZM6.001 2a6.547 6.547 0 0 1 2.518.485c.4.166.55.551.454.926l-.04.159c-.065.253-.375.483-.763.42l-.388-.064c-.173-.028-.266-.14-.286-.23l-.174-.787a.5.5 0 0 0-.399-.383A5.085 5.085 0 0 0 6 2.43a5.084 5.084 0 0 0-.923.095.5.5 0 0 0-.399.383l-.174.788c-.02.09-.113.2-.286.229l-.387.064c-.389.063-.698-.167-.763-.42l-.04-.153c-.096-.377.057-.765.461-.93A6.701 6.701 0 0 1 6 2ZM5.5 7a.5.5 0 0 1 .5.5V8h.5a.5.5 0 0 1 0 1h-1a.5.5 0 0 1-.5-.5v-1a.5.5 0 0 1 .5-.5ZM3 8a3 3 0 1 1 6 0 3 3 0 0 1-6 0Zm3-2a2 2 0 1 0 0 4 2 2 0 0 0 0-4Z"/></svg>
